X: 1
T: PADDY HANDLY'S GOOSE -- REEL
B: Ryan's Mammoth Collection of Fiddle Tunes
R: REEL
M: C|
L: 1/8
Z: Contributed 20000427021736 by Ivan Bradley bradleyi:peoplepc.com
K: G
vGEDE GABd | e2 de gedB | e2 de gedB | A2 AG AcBA |
GEDE GABd  | e2 de gedB | egdf  BdAB | G2 G2 G2 z2 :|
(3(BcB)AB (3(BcB)GB | (3(cec)Ac (3(cec)Ac | (3(BcB)GB (3(BcB)GB| AGEGA2Ac |
(3(BcB)AB (3(BcB)AB | (3(cec)Ac (3(cec)Ac | Bdef gage | dBAB G2G2 :|
